X:16712
T:The Flower of Scotland
M:3/4
L:1/4
C:Roy Williamson of Corries
R:Song
K:D
f|f2e|d3|(A3|A2)A|
d2f|(e3|e2)e|d2e|
(f3|f3|f2)f|gfg|
a3|(d3|d2)f|e2e|
ede|f2g|f2e|d3|
(A3|A2)f|gfg|a3|
(d3|d2)f|gfe|f2e|
(d3|d2)d|=c2e|(d3|
d3|d2)z|]
